icons/react-router.svg

<svg height="50" viewBox="0 0 92 50" width="92" xmlns="http://www.w3.org/2000/svg"><g fill="none"><path d="m27.9024961 33.0929766c4.5814336 0 8.2954043-3.7139707 8.2954043-8.2957618 0-4.5810761-3.7139707-8.2950468-8.2957617-8.2950468-4.5810762 0-8.2950469 3.7136132-8.2950469 8.2954043 0 4.5814336 3.7139707 8.2954043 8.2954043 8.2954043zm-19.6070918 16.5904511c4.5814336 0 8.2954043-3.7136132 8.2954043-8.2954043 0-4.5810761-3.7139707-8.2950468-8.29576172-8.2950468-4.58071875 0-8.29504688 3.7136132-8.29504688 8.2950468s3.71361328 8.2957618 8.2954043 8.2957618zm74.9091914 0c4.5814336 0 8.2954043-3.7136132 8.2954043-8.2954043 0-4.5810761-3.7136133-8.2950468-8.2954043-8.2950468-4.5814336 0-8.2954043 3.7136132-8.2954043 8.2950468s3.7139707 8.2957618 8.2957617 8.2957618z" fill="#fff"/><path d="m55.9597559 25.1471309c-.2652071-2.7714493-.4003125-5.07825-2.5233985-6.6995157-2.6885273-2.0530312-5.7344765-.7209199-9.4859765-2.0751914-3.6868067-.8917675-6.421084-4.1646797-6.421084-8.06593942 0-4.58750977 3.7808086-8.30648438 8.4444492-8.30648438 3.4544824 0 6.4243008 2.03980664 7.7324648 4.96208789 2.00192 3.80296875.7005469 7.67277541 3.2160821 9.62215431 2.9783965 2.3082305 6.9940312.6179824 11.4746718 2.8050469 1.4301239.6562905 2.6483084 1.6992991 3.5170313 3.0112793.886944 1.3398014 1.3591298 2.9113921 1.3574925 4.5181699 0 3.9012597-2.7342816 7.1745293-6.4207308 8.0662969-3.7518574 1.3542714-6.7978066.0221601-9.486334 2.0751914-3.023789 2.3089453-1.4050254 6.1716035-3.8694492 10.2515742-1.3985918 2.6870976-4.2415254 4.5260332-7.5212285 4.5260332-4.6636406 0-8.4444492-3.7189746-8.4444492-8.3064844 0-3.3322441 1.9951289-6.2062734 4.8745195-7.5294492 4.4806406-2.1874219 8.495918-.4968164 11.4746719-2.8050469 1.7181269-1.3317539 2.0812676-3.3858574 2.0812676-6.0497226z" fill="#ca4245"/></g></svg>

<?xml version="1.0" encoding="UTF-8"?>
<svg width="92px" height="50px" viewBox="0 0 92 50" version="1.1" xmlns="http://www.w3.org/2000/svg" xmlns:xlink="http://www.w3.org/1999/xlink">
    <!-- Generator: Sketch 56.2 (81672) - https://sketch.com -->
    <title>react-router</title>
    <desc>Created with Sketch.</desc>
    <g id="Page-1" stroke="none" stroke-width="1" fill="none" fill-rule="evenodd">
        <g id="react-router" fill-rule="nonzero">
            <path d="M27.9024961,33.0929766 C32.4839297,33.0929766 36.1979004,29.3790059 36.1979004,24.7972148 C36.1979004,20.2161387 32.4839297,16.502168 27.9021387,16.502168 C23.3210625,16.502168 19.6070918,20.2157812 19.6070918,24.7975723 C19.6070918,29.3790059 23.3210625,33.0929766 27.9024961,33.0929766 Z M8.2954043,49.6834277 C12.8768379,49.6834277 16.5908086,45.9698145 16.5908086,41.3880234 C16.5908086,36.8069473 12.8768379,33.0929766 8.29504688,33.0929766 C3.71432813,33.0929766 0,36.8065898 0,41.3880234 C0,45.969457 3.71361328,49.6837852 8.2954043,49.6837852 L8.2954043,49.6834277 Z M83.2045957,49.6834277 C87.7860293,49.6834277 91.5,45.9698145 91.5,41.3880234 C91.5,36.8069473 87.7863867,33.0929766 83.2045957,33.0929766 C78.6231621,33.0929766 74.9091914,36.8065898 74.9091914,41.3880234 C74.9091914,45.969457 78.6231621,49.6837852 83.2049531,49.6837852 L83.2045957,49.6834277 Z" id="Shape" fill="#FFFFFF"></path>
            <path d="M55.9597559,25.1471309 C55.6945488,22.3756816 55.5594434,20.0688809 53.4363574,18.4476152 C50.7478301,16.394584 47.7018809,17.7266953 43.9503809,16.3724238 C40.2635742,15.4806563 37.5292969,12.2077441 37.5292969,8.30648438 C37.5292969,3.71897461 41.3101055,0 45.9737461,0 C49.4282285,0 52.3980469,2.03980664 53.7062109,4.96208789 C55.7081309,8.76505664 54.4067578,12.6348633 56.922293,14.5842422 C59.9006895,16.8924727 63.9163242,15.2022246 68.3969648,17.3892891 C69.8270887,18.0455796 71.0452732,19.0885882 71.9139961,20.4005684 C72.8009401,21.7403698 73.2731259,23.3119605 73.2714886,24.9187383 C73.2714886,28.819998 70.537207,32.0932676 66.8507578,32.9850352 C63.0989004,34.3393066 60.0529512,33.0071953 57.3644238,35.0602266 C54.3406348,37.3691719 55.9593984,41.2318301 53.4949746,45.3118008 C52.0963828,47.9988984 49.2534492,49.837834 45.9737461,49.837834 C41.3101055,49.837834 37.5292969,46.1188594 37.5292969,41.5313496 C37.5292969,38.1991055 39.5244258,35.3250762 42.4038164,34.0019004 C46.884457,31.8144785 50.8997344,33.505084 53.8784883,31.1968535 C55.5966152,29.8650996 55.9597559,27.8109961 55.9597559,25.1471309 L55.9597559,25.1471309 Z" id="Path" fill="#CA4245"></path>
        </g>
    </g>
</svg>
